svg/misc/pregnant.svg

<svg width="288" height="512" viewBox="0 0 288 512" fill="none" xmlns="http://www.w3.org/2000/svg">
<path d="M209 64C209 99.3462 180.346 128 145 128C109.654 128 81 99.3462 81 64C81 28.6538 109.654 0 145 0C180.346 0 209 28.6538 209 64Z" fill="black"/>
<path fill-rule="evenodd" clip-rule="evenodd" d="M165.569 144C187.144 144 196.949 166.377 204.963 184.67C206.227 187.555 207.447 190.338 208.661 192.916C210.52 196.704 214.618 200.904 220.955 205.516C227.292 210.127 234.093 214.904 241.36 219.845C248.626 224.786 255.85 230.427 263.032 236.768C270.214 243.109 276.171 251.055 280.903 260.608C285.634 270.161 288 280.702 288 292.231C288 305.901 285.296 318.583 279.889 330.277C274.481 341.97 264.37 352.117 255.921 358.376V384.069C255.921 390.657 254.78 393.351 252.499 396.15C250.217 398.95 248.373 400.18 240.599 400.18L191.762 400.074V479.636C191.762 488.695 188.72 496.353 182.637 502.612C176.553 508.871 168.949 512 159.824 512L128.223 512C119.267 512 111.578 508.829 105.156 502.489C98.7349 496.148 95.5242 488.53 95.5242 479.636V400.074H78.4821C73.4125 400.074 69.37 399.368 65.6523 395.745C58.641 388.912 60.3192 382.401 62.396 374.344C62.4404 374.172 62.4849 373.999 62.5295 373.826L62.6105 373.51L89.7786 255.42V224.023H76.5977L49.4982 311.452C45.1403 329.15 17.5685 329.053 7.77786 319.653C-3.657 308.675 -0.301466 297.943 4.1024 285.066L38.3222 174.387C41.195 165.164 47.6587 157.794 57.7134 152.276C67.7681 146.759 78.4565 144 89.7786 144H165.569ZM194.614 346.695L155.173 308.813C148.451 302.395 144.726 295.458 144 288C144 278.808 146.453 271.177 151.358 265.105C156.263 259.035 163.075 256 171.795 256C180.697 256 187.556 258.255 192.37 262.765C197.16 267.251 199.747 273.198 200.131 280.604C200.137 280.567 200.142 280.531 200.148 280.494C200.549 273.139 203.044 267.229 207.63 262.765C212.263 258.255 218.939 256 227.66 256C236.38 256 243.283 259.035 248.37 265.105C253.456 271.177 256 278.808 256 288C255.274 295.285 251.458 302.222 244.555 308.813L200.137 352L199.842 351.717L199.789 351.77L194.614 346.695Z" fill="black"/>
</svg>

<svg width="288" height="512" viewBox="0 0 288 512" version="1.1" xmlns="http://www.w3.org/2000/svg"><path fill="currentColor" d="M76.598,224.023l-27.1,87.429c-4.358,17.698 -31.929,17.601 -41.72,8.201c-11.435,-10.978 -8.079,-21.71 -3.676,-34.587l34.22,-110.679c2.873,-9.223 9.337,-16.593 19.391,-22.111c10.055,-5.517 20.744,-8.276 32.066,-8.276l75.79,0c21.575,0 31.38,22.377 39.394,40.67c1.264,2.885 2.484,5.668 3.698,8.246c1.859,3.788 5.957,7.988 12.294,12.6c6.337,4.611 13.138,9.388 20.405,14.329c7.266,4.941 14.49,10.582 21.672,16.923c7.182,6.341 13.139,14.287 17.871,23.84c4.731,9.553 7.097,20.094 7.097,31.623c0,13.67 -2.704,26.352 -8.111,38.046c-5.408,11.693 -15.519,21.84 -23.968,28.099l0,25.693c0,6.588 -1.141,9.282 -3.422,12.081c-2.282,2.8 -4.126,4.03 -11.9,4.03l-48.837,-0.106l0,79.562c0,9.059 -3.042,16.717 -9.125,22.976c-6.043,6.217 -13.587,9.346 -22.813,9.388l-31.601,0c-8.956,0 -16.645,-3.171 -23.067,-9.511c-6.421,-6.341 -9.632,-13.959 -9.632,-22.853l0,-79.562l-17.042,0c-5.07,0 -9.112,-0.706 -12.83,-4.329c-7.011,-6.833 -5.333,-13.344 -3.256,-21.401c0.044,-0.172 0.089,-0.345 0.133,-0.518l0.081,-0.316l27.169,-118.09l0,-31.397l-13.181,0Zm118.016,122.672l5.175,5.075l0.053,-0.053l0.295,0.283l44.418,-43.187c6.903,-6.591 10.719,-13.528 11.445,-20.813c0,-9.192 -2.544,-16.823 -7.63,-22.895c-5.087,-6.07 -11.99,-9.105 -20.71,-9.105c-8.721,0 -15.397,2.255 -20.03,6.765c-4.586,4.464 -7.081,10.374 -7.482,17.729c-0.006,0.037 -0.011,0.073 -0.017,0.11c-0.384,-7.406 -2.971,-13.353 -7.761,-17.839c-4.814,-4.51 -11.673,-6.765 -20.575,-6.765c-8.72,0 -15.532,3.035 -20.437,9.105c-4.905,6.072 -7.358,13.703 -7.358,22.895c0.726,7.458 4.451,14.395 11.173,20.813l39.441,37.882Zm14.386,-282.695c0,35.346 -28.654,64 -64,64c-35.346,0 -64,-28.654 -64,-64c0,-35.346 28.654,-64 64,-64c35.346,0 64,28.654 64,64Z"></path></svg>
